X: 1
T: Hambopolska # 1
T: efter Johan Karlsson
M: 3/4
L: 1/16
K: Gmaj
Q: 160
|: D3G G4 B4 | d4{ed} B3A B4 | D3G G4 B4 | d4{ed} B3A B4 | D3F F4 A4 | d4 f6 e2| e3d d4 c4
| c4{dc} B3A B4 | D3G G4 B4 | d4{ed} B3A B4 | D3G G4 B4 | d4{ed} B3A B4 | D3F F4 A4 | d4 f6 e2|
e3d d4 F3A| A3G G8 :: {gf}g4 B3A B3c | d4 G3F G4 | D4 G4 B3d| g3f e3^d e4
|  {gf}g4 B3A B3c | d4 {GA}G3F G4 | D7/2F/2 F7/2A/2 A7/2c/2| f3e d3c d4 | {gf}g4 B3A B3c
| d4 G3F G4 | G4 B3d d3g| g3f e8| e3^d e4 f4 | g4B8| (e2fe) d4 F3A A3G G8 :|

